icons/artboard.svg

<svg width="24" height="24" viewBox="0 0 24 24" fill="none" xmlns="http://www.w3.org/2000/svg">
<path fill-rule="evenodd" clip-rule="evenodd" d="M7 2C7.55228 2 8 2.44772 8 3V4C8 4.55228 7.55228 5 7 5C6.44772 5 6 4.55228 6 4V3C6 2.44772 6.44772 2 7 2ZM17 2C17.5523 2 18 2.44772 18 3V4C18 4.55228 17.5523 5 17 5C16.4477 5 16 4.55228 16 4V3C16 2.44772 16.4477 2 17 2ZM2 7C2 6.44772 2.44772 6 3 6H4C4.55228 6 5 6.44772 5 7C5 7.55228 4.55228 8 4 8H3C2.44772 8 2 7.55228 2 7ZM6 7C6 6.44772 6.44772 6 7 6H17C17.5523 6 18 6.44772 18 7V17C18 17.5523 17.5523 18 17 18H7C6.44772 18 6 17.5523 6 17V7ZM8 8V16H16V8H8ZM19 7C19 6.44772 19.4477 6 20 6H21C21.5523 6 22 6.44772 22 7C22 7.55228 21.5523 8 21 8H20C19.4477 8 19 7.55228 19 7ZM2 17C2 16.4477 2.44772 16 3 16H4C4.55228 16 5 16.4477 5 17C5 17.5523 4.55228 18 4 18H3C2.44772 18 2 17.5523 2 17ZM19 17C19 16.4477 19.4477 16 20 16H21C21.5523 16 22 16.4477 22 17C22 17.5523 21.5523 18 21 18H20C19.4477 18 19 17.5523 19 17ZM7 19C7.55228 19 8 19.4477 8 20V21C8 21.5523 7.55228 22 7 22C6.44772 22 6 21.5523 6 21V20C6 19.4477 6.44772 19 7 19ZM17 19C17.5523 19 18 19.4477 18 20V21C18 21.5523 17.5523 22 17 22C16.4477 22 16 21.5523 16 21V20C16 19.4477 16.4477 19 17 19Z" fill="black"/>
</svg>

<svg
  width="24"
  height="24"
  viewBox="0 0 24 24"
  xmlns="http://www.w3.org/2000/svg"
>
  <path
    fill-rule="evenodd"
    clip-rule="evenodd"
    d="M7 2a1 1 0 0 1 1 1v1a1 1 0 0 1-2 0V3a1 1 0 0 1 1-1zm10 0a1 1 0 0 1 1 1v1a1 1 0 1 1-2 0V3a1 1 0 0 1 1-1zM2 7a1 1 0 0 1 1-1h1a1 1 0 0 1 0 2H3a1 1 0 0 1-1-1zm4 0a1 1 0 0 1 1-1h10a1 1 0 0 1 1 1v10a1 1 0 0 1-1 1H7a1 1 0 0 1-1-1V7zm2 1v8h8V8H8zm11-1a1 1 0 0 1 1-1h1a1 1 0 1 1 0 2h-1a1 1 0 0 1-1-1zM2 17a1 1 0 0 1 1-1h1a1 1 0 1 1 0 2H3a1 1 0 0 1-1-1zm17 0a1 1 0 0 1 1-1h1a1 1 0 1 1 0 2h-1a1 1 0 0 1-1-1zM7 19a1 1 0 0 1 1 1v1a1 1 0 1 1-2 0v-1a1 1 0 0 1 1-1zm10 0a1 1 0 0 1 1 1v1a1 1 0 1 1-2 0v-1a1 1 0 0 1 1-1z"
  />
</svg>
